docs/svgs/wall-lantern.svg

<svg viewBox="0 0 24 24" height="24px" width="24px" fill="#44739e" xmlns="http://www.w3.org/2000/svg"><title>hue:wall-lantern</title><desc>Source: https://github.com/arallsopp/hass-hue-icons</desc><path d="M 16.332031 18.414062 C 15.34375 18.089844 13.90625 18.089844 12.917969 18.410156 L 12.101562 12.59375 C 13.710938 12.796875 15.539062 12.796875 17.148438 12.59375 Z M 19.1875 9.566406 C 18.015625 9.214844 16.488281 9.03125 14.941406 9.007812 C 14.578125 6.464844 12.390625 4.5 9.75 4.5 C 8.59375 4.5 7.527344 4.882812 6.65625 5.515625 C 6.597656 5.027344 6.515625 4.566406 6.398438 4.171875 C 6.207031 3.503906 5.96875 3.125 5.71875 3.027344 C 5.679688 3.007812 5.632812 3 5.589844 3 L 4.160156 3 C 4.117188 3 4.074219 3.007812 4.03125 3.027344 C 3.773438 3.125 3.527344 3.535156 3.332031 4.246094 C 2.890625 5.847656 2.890625 8.410156 3.332031 10.007812 C 3.527344 10.714844 3.773438 11.125 4.03125 11.222656 C 4.074219 11.242188 4.117188 11.25 4.160156 11.25 L 5.589844 11.25 C 5.632812 11.25 5.679688 11.242188 5.71875 11.222656 C 5.96875 11.125 6.207031 10.746094 6.398438 10.078125 C 6.613281 9.328125 6.726562 8.359375 6.742188 7.375 C 7.449219 6.484375 8.527344 5.898438 9.75 5.898438 C 11.625 5.898438 13.1875 7.25 13.527344 9.03125 C 12.253906 9.097656 11.035156 9.273438 10.058594 9.566406 C 7.589844 10.3125 7.667969 11.5 10.175781 12.21875 C 10.289062 12.25 10.421875 12.273438 10.542969 12.304688 L 11.625 19.988281 C 11.714844 20.324219 12.25 20.734375 13.484375 20.917969 C 13.863281 20.972656 14.246094 21 14.625 21 C 15.007812 21 15.390625 20.972656 15.769531 20.917969 C 17 20.734375 17.507812 20.324219 17.625 19.992188 L 18.707031 12.304688 C 18.828125 12.273438 18.960938 12.25 19.078125 12.21875 C 21.582031 11.5 21.660156 10.3125 19.1875 9.566406 Z M 19.1875 9.566406 "/></svg>

<svg viewBox="0 0 24 24" height="24px" width="24px" fill="#44739e" xmlns="http://www.w3.org/2000/svg"><title>hue:wall-lantern</title><desc>Source: https://github.com/arallsopp/hass-hue-icons</desc><path d="M16.33,18.41c-0.99-0.32-2.43-0.32-3.41,0l-0.82-5.82c1.61,0.2,3.44,0.2,5.05,0L16.33,18.41z M19.19,9.57 c-1.17-0.35-2.7-0.54-4.25-0.56C14.58,6.46,12.39,4.5,9.75,4.5c-1.16,0-2.22,0.38-3.09,1.02C6.6,5.03,6.52,4.57,6.4,4.17 C6.21,3.5,5.97,3.12,5.72,3.03C5.68,3.01,5.63,3,5.59,3H4.16C4.12,3,4.07,3.01,4.03,3.03c-0.26,0.1-0.5,0.51-0.7,1.22 c-0.44,1.6-0.44,4.16,0,5.76c0.2,0.71,0.44,1.12,0.7,1.21c0.04,0.02,0.09,0.03,0.13,0.03h1.43c0.04,0,0.09-0.01,0.13-0.03 c0.25-0.1,0.49-0.48,0.68-1.14c0.21-0.75,0.33-1.72,0.34-2.7C7.45,6.48,8.53,5.9,9.75,5.9c1.88,0,3.44,1.35,3.78,3.13 c-1.27,0.07-2.49,0.24-3.47,0.54c-2.47,0.75-2.39,1.93,0.12,2.65c0.11,0.03,0.25,0.05,0.37,0.09l1.08,7.68 c0.09,0.34,0.62,0.75,1.86,0.93c0.38,0.05,0.76,0.08,1.14,0.08c0.38,0,0.77-0.03,1.14-0.08c1.23-0.18,1.74-0.59,1.86-0.93l1.08-7.69 c0.12-0.03,0.25-0.05,0.37-0.09C21.58,11.5,21.66,10.31,19.19,9.57z"/></svg>
